!!!COM: Haydn, Franz Joseph
!!!OTL: String Quartet in D Major
!!!OPS: Opus 20
!!!ONM: No. 4
!!!OMD: Menuetto alla zingarese
!!!OMV: 3
!!!SCT: H III:34
!!!SCA: Thematisch-bibliographisches Werkevererzeichnis (A. van Hoboken)
!!!YOR: Trautwein Edition
!!!ENC: Frances Bennion
!!!CDT: 1732/3/31/-1809/5/31/
!!!CNT: Oesterreich
!!!YEC: Copyright (c) 1994, 2000 Center for Computer Assisted Research in the Humanities
!!!YEM: Rights to all derivative editions reserved.
!!!YEM: Refer to licensing agreement for further details.
!!!YEN: United States of America
**kern	**kern	**kern	**kern
*k[f#c#]	*k[f#c#]	*k[f#c#]	*k[f#c#]
*D:	*D:	*D:	*D:
*clefF4	*clefC3	*clefG	*clefG
*M3/4	*M3/4	*M3/4	*M3/4
2r	2r	2r	2r
4r	4r	4r	4a
=1	=1	=1	=1
4d	4f#	[2.a	4dd
4c#	4e	.	2ee
4A	4c#	.	.
=2	=2	=2	=2
4d	4d	4a]	4ff#
2G	2B	4b	4gg
.	.	[4g	[4ee
=3	=3	=3	=3
2A	2c#	4g]	4ee]
.	.	2e	2cc#
[4AA	[4A	.	.
=4	=4	=4	=4
4AA]	4A]	2c#	2a
4A	4c#	.	.
4E	4B	4d	8g#
.	.	.	8e
=5	=5	=5	=5
2AA	2A	4c#	4a
.	.	2c#	2a
4A	4A	.	.
=6	=6	=6	=6
4E	4B	4d	8g#
.	.	.	8e
4AA	4c#	4c#	4a
4E	4B	4d	8g#
.	.	.	8e
=7	=7	=7	=7
4AA	4c#	4c#	4a
4D	4d	4f#	8b
.	.	.	8dd
4E	4e	8d	8b
.	.	8B	8g#
=8	=8	=8	=8
4AA	4A	4c#	4a
4A	4a	2r	4r
4r	4r	.	4a
=9	=9	=9	=9
4F#	4d	4A	4aa
4E	2e	4B	2gg
4A	.	4c#	.
=10	=10	=10	=10
4D	4d	4d	4ff#
2G	4dd	2B	4bb
.	[4b	.	[4gg
=11	=11	=11	=11
2e	4b]	2g	4gg]
.	2g	.	2ee
[4c#	.	[4e	.
=12	=12	=12	=12
4c#]	4e	4e]	8cc#
.	.	.	8dd
8A	[2a	8c#	8ee
8B	.	8d	8cc#
8c#	.	8e	[4aa
8A	.	8c#	.
=13	=13	=13	=13
2d	2a]	2f#	4aa]
.	.	.	2ff#
[4f#	[4dd	[4a	.
=14	=14	=14	=14
4f#]	4dd]	4a]	2dd
2g	[2b	2b	.
.	.	.	8b
.	.	.	8cc#
=15	=15	=15	=15
8G	4b]	8B	8dd
8A	.	8c#	8b
8B	[2g	8d	2gg
8G	.	8B	.
[4c#	.	[4e	.
=16	=16	=16	=16
4c#]	4g]	4e]	2ee
2e	2e	2g	.
.	.	.	8cc#
.	.	.	8a
=17	=17	=17	=17
2d	2d	4f#	4dd
.	.	2f#	2dd
4D	4f#	.	.
=18	=18	=18	=18
4A	4e	4g	8cc#
.	.	.	8a
4D	4d	4f#	4dd
4A	4e	4g	8cc#
.	.	.	8a
=19	=19	=19	=19
4D	4d	4f#	4dd
4G	4G	4b	8ee
.	.	.	8gg
4A	4A	8g	8ee
.	.	8e	8cc#
=20	=20	=20	=20
4D	4D	4f#	4dd
4DD	2r	2r	2r
4A	.	.	.
=21	=21	=21	=21
8d	2r	4d	4f#
8c#	.	.	.
8B	.	4d	4f#
8A	.	.	.
8G	4A	4d	4f#
8F#	.	.	.
=22	=22	=22	=22
8G	4B	4d	4e
8A	.	.	.
8B	2r	2r	2r
8A	.	.	.
8G	.	.	.
8F#	.	.	.
=23	=23	=23	=23
8E	2r	4c#	4g
8G	.	.	.
8A	.	4c#	4g
8G	.	.	.
8F#	4A	4c#	4g
8E	.	.	.
=24	=24	=24	=24
8D	4d	4d	4f#
8BB	.	.	.
8AA	2r	2r	2r
8GG	.	.	.
8FF#	.	.	.
8EE	.	.	.
=25	=25	=25	=25
8DD	2r	4f#	4dd
8FF#	.	.	.
8AA	.	4f#	4dd
8D	.	.	.
8F#	4d	4f#	4dd
8G#	.	.	.
=26	=26	=26	=26
8A	4a	4e	4cc#
8G#	.	.	.
8F#	2r	2r	2r
8E	.	.	.
8D	.	.	.
8C#	.	.	.
=27	=27	=27	=27
8D	4f#	4a	4b
8C#	.	.	.
8D	4r	4a	4b
8BB	.	.	.
8E	4e	4g#	4b
8EE	.	.	.
=28	=28	=28	=28
4AA	4e	4a	4a
4r	2r	2r	2r
4AA	.	.	.
=29	=29	=29	=29
8A	[2.A	[2.a	8cc#
8B	.	.	8dd
8c#	.	.	8ee
8A	.	.	8cc#
8c#	.	.	8ee
8d	.	.	8ff#
=30	=30	=30	=30
8e	2.A_	2.a_	8gg
8d	.	.	8ff#
8c#	.	.	8ee
8d	.	.	8ff#
8e	.	.	8ee
8f#	.	.	8dd
=31	=31	=31	=31
8g	2.A_	2.a_	2cc#
8f#	.	.	.
8g	.	.	.
8e	.	.	.
8f#	.	.	4dd
8d	.	.	.
=32	=32	=32	=32
8c#	4A]	4a]	4ee
8d	.	.	.
8e	2r	2r	2r
8c#	.	.	.
8A	.	.	.
8c#	.	.	.
=33	=33	=33	=33
8d	2r	4d	4f#
8c#	.	.	.
8B	.	4d	4f#
8A	.	.	.
8G	4A	4d	4f#
8F#	.	.	.
=34	=34	=34	=34
8G	4B	4d	4e
8A	.	.	.
8B	2r	2r	2r
8A	.	.	.
8G	.	.	.
8F#	.	.	.
=35	=35	=35	=35
8E	2r	4e	4g
8G	.	.	.
8A	.	4d	4f#
8G	.	.	.
8A	4A	4c#	4e
8AA	.	.	.
=36	=36	=36	=36
4D	4D	4d	4d
2r	2r	2r	2r
==	==	==	==
*-	*-	*-	*-
!!!RWG1: This file contains only pitch and duration data.
!!!RWG2: Transposing instruments are not transposed.
!!!RWG3: Spines may have incompatible meters.
!!!RWG4: Durations of rests and tied notes may be interpreted.
!!!RWG: Key is interpreted using the Humdrum key tool.
!!!GTL: 6 Divertimentos ("Sun")
!!!AFT: stage1
!!!END: 1997/04/15
!!!KEY: 4267291570
!!!EMD: Converted from MuseData to Humdrum Dec 16, 2000, by Andreas Kornstaedt using muse2kern.
!!!EMD: Manual editing by Craig Sapp, Nov 2001
